src/lib/packages/icons/src/assets/filled/folder-import.svg

<svg width="24" height="24" viewBox="0 0 24 24" fill="none" xmlns="http://www.w3.org/2000/svg">
<path d="M18 7H13L10 4H6C4 4 3 5 3 7V17C3 19 4 20 6 20H18C20 20 21 19 21 17V10C21 8 20 7 18 7ZM12 14.75H8.81104L9.53101 15.47C9.82401 15.763 9.82401 16.238 9.53101 16.531C9.38501 16.677 9.19298 16.751 9.00098 16.751C8.80898 16.751 8.61695 16.678 8.47095 16.531L6.47095 14.531C6.40195 14.462 6.34708 14.379 6.30908 14.287C6.23308 14.104 6.23308 13.897 6.30908 13.714C6.34708 13.622 6.40195 13.539 6.47095 13.47L8.47095 11.47C8.76395 11.177 9.23898 11.177 9.53198 11.47C9.82498 11.763 9.82498 12.238 9.53198 12.531L8.81201 13.251H12C12.414 13.251 12.75 13.587 12.75 14.001C12.75 14.415 12.414 14.75 12 14.75Z" fill="currentColor"/>
</svg>

<svg xmlns="http://www.w3.org/2000/svg" width="24" height="24" fill="none"><path fill="currentColor" d="M18 7h-5l-3-3H6C4 4 3 5 3 7v10c0 2 1 3 3 3h12c2 0 3-1 3-3v-7c0-2-1-3-3-3Zm-6 7.75H8.811l.72.72a.75.75 0 0 1-1.06 1.061l-2-2a.749.749 0 0 1-.162-.817.749.749 0 0 1 .162-.244l2-2a.75.75 0 0 1 1.061 1.061l-.72.72H12a.75.75 0 0 1 0 1.499Z"/></svg>
